X:1
T:Title
%%score ( 1 2 ) { 3 | 4 }
L:1/8
Q:1/4=110
M:4/4
K:A
V:1 treble nm="Grand Piano, Soprano"
V:2 treble 
V:3 treble nm="Choir Pad, Land of Pleasure, Campbell"
V:4 bass 
V:1
 cd [Ee]2- [Ee][Ee][Fd][Ec] | [DB][CA] [DB]2 [DF]4 | [FB]2 [EA]2 [EA]2 [EB]2 | %3
w: By~William~Batchelder~Bradbury,~1862 * * * * * *|||
 [EB]2 [Ec]2 [Ae]2 [Ge]2 | cd [Ae]2- [Ae][Ae][Fd][Ec] | [DB][CA] [DB]2 [DF]4 | %6
w: |||
 [FB]2 [EA]2 [EA]2 [Ec][EB] | [EA][EG] [EA]6 | E-[EA] [EB]2 [EB]2 cB | AB [Ec]2 [Ee]4 | %10
w: ||||
 GA [EB]2 [EB]2 [Ec][EB] | [EA][Ec] [EB]6 | cd [Ae]2- [Ae][Ae][Fd][Ec] | [DB][CA] [DB]2 [DF]4 | %14
w: ||||
 B-[EB] [EA]2 [CA]2 [Ec][EB] | [EA][EB] [Ec]6 | cd [Ae]2- [Ae][Ae][Fd][Ec] | [DB][CA] [DB]2 [DF]4 | %18
w: ||||
 [FB]2 [EA]2- [EA][CE][Ec][DB] | [CA][DG] [CA]6- | [CA]2 z2 z4 |] %21
w: |||
V:2
 E2 z2 z4 | x8 | x8 | x8 | A2 z2 z4 | x8 | x8 | x8 | .G2 z2 z2 E2 | E2 z2 z4 | E2 z2 z4 | x8 | %12
 E2 z2 z4 | x8 | .F2 z2 z4 | x8 | E2 z2 z4 | x8 | x8 | x8 | x8 |] %21
V:3
 A,B, C2- CC[K:bass] A,2 | A,2 F,2 A,4 | F,2 A,2 A,2 G,2 | G,2 A,2[K:treble] C2 E2 | %4
 A,B, C2- CC[K:bass] A,2 | A,2 F,2 A,4 | D2[K:treble] C2 C2 ED | C[K:bass]B, C6 | %8
 E,F, G,2 G,2 A,G, | F,G, A,2 C4 | E,F, G,2 G,2 A,G, | A,A, G,6 | A,B,[K:treble] C2- CC A,2 | %13
 A,2[K:bass] F,2 A,4 | F,G, A,2 A,2 A,G, | A,G, A,6 | A,B,[K:treble] C2- CC A,2 | %17
 A,2[K:bass] F,2 A,4 | D2 C2- CA,A,B, | CB, A,6- | A,2 z2 z4 |] %21
V:4
 z2 A,2- A,A, z2 | z2 D,2 D,4 | D,2 C,2 C,2 E,2 | E,2 z2 A,2 E,2 | z2 A,2- A,A, z2 | z2 D,2 D,4 | %6
 D,2 E,2 E,2 E,E, | E,E, A,,6 | z2 E,2 E,2 E,2 | E,2 z2 A,4 | z2 E,2 E,2 z E, | C,A,, E,6 | %12
 z2 A,2- A,A, z2 | z2 D,2 D,4 | D,2 C,2 A,,2 z E, | C,E, z2 z4 | z2 A,2- A,A, z2 | z2 D,2 D,4 | %18
 D,2 E,2- E,E,E,E, | E,E, A,,6- | A,,2 z2 z4 |] %21

